src/file.js.svg

<svg width="32" height="32" viewBox="0 0 32 32" fill="none" xmlns="http://www.w3.org/2000/svg">
<path d="M10 17.69V9H13V17.71C13.0078 18.3996 12.934 19.0877 12.78 19.76C12.6598 20.2915 12.4501 20.7987 12.16 21.26C11.9002 21.6596 11.5596 22.0002 11.16 22.26C10.756 22.5222 10.3093 22.7117 9.84 22.82C9.31526 22.9407 8.77845 23.0011 8.24 23C7.84504 22.9977 7.45073 22.9677 7.06 22.91C6.70029 22.8664 6.34542 22.7894 6 22.68L6.34 20.17C6.84302 20.3363 7.37027 20.4174 7.9 20.41C8.13904 20.4124 8.37748 20.3855 8.61 20.33C8.81542 20.277 9.00887 20.1854 9.18 20.06C9.35865 19.9273 9.50553 19.7565 9.61 19.56C9.73859 19.315 9.82961 19.0521 9.88 18.78C9.95569 18.4215 9.99588 18.0564 10 17.69Z" fill="#F77737"/>
<path d="M15.76 22.13L16.38 19.61C16.8835 19.8664 17.4132 20.0676 17.96 20.21C18.5462 20.3729 19.1516 20.457 19.76 20.46C20.3153 20.4926 20.8671 20.3529 21.34 20.06C21.5147 19.9444 21.6575 19.7867 21.7554 19.6015C21.8532 19.4163 21.903 19.2095 21.9 19C21.8958 18.8057 21.8478 18.6148 21.7595 18.4416C21.6712 18.2685 21.5449 18.1175 21.39 18C20.8568 17.6234 20.2657 17.3362 19.64 17.15C17.16 16.2567 15.92 14.9233 15.92 13.15C15.9173 12.5931 16.0404 12.0427 16.28 11.54C16.517 11.0433 16.8581 10.6034 17.28 10.25C17.755 9.86044 18.3021 9.56822 18.89 9.39C19.5688 9.15109 20.2807 9.0195 21 9C22.1839 8.96925 23.3596 9.20506 24.44 9.69L23.76 12.14C22.9026 11.7141 21.9574 11.4949 21 11.5C20.4886 11.4693 19.9807 11.6024 19.55 11.88C19.324 12.0244 19.1572 12.2451 19.0802 12.502C19.0031 12.759 19.0208 13.035 19.13 13.28C19.1973 13.4214 19.2887 13.5499 19.4 13.66C19.5495 13.7994 19.7178 13.9172 19.9 14.01C20.12 14.13 20.35 14.24 20.59 14.35L21.53 14.72C22.5321 15.0399 23.4392 15.6034 24.17 16.36C24.7376 17.0284 25.0369 17.8836 25.01 18.76C25.0107 19.2051 24.9398 19.6474 24.8 20.07C24.6592 20.4894 24.4422 20.8793 24.16 21.22C23.8618 21.5849 23.5032 21.8961 23.1 22.14C22.6243 22.4183 22.1081 22.6208 21.57 22.74C20.9147 22.8938 20.2431 22.9676 19.57 22.96C18.8494 22.9604 18.1312 22.8765 17.43 22.71C16.8503 22.5909 16.2888 22.3959 15.76 22.13Z" fill="#F77737"/>
</svg>

<svg id="Bases" xmlns="http://www.w3.org/2000/svg" viewBox="0 0 32 32"><defs><style>.cls-1{fill:#f77737;}</style></defs><title>file.js</title><g id="_编组_" data-name="&lt;编组&gt;"><g id="_编组_2" data-name="&lt;编组&gt;"><path id="_复合路径_" data-name="&lt;复合路径&gt;" class="cls-1" d="M10,17.69V9h3v8.71a8.74,8.74,0,0,1-.22,2.05,4.81,4.81,0,0,1-.62,1.5,3.41,3.41,0,0,1-1,1,4.13,4.13,0,0,1-1.32.56A7.07,7.07,0,0,1,8.24,23a8.41,8.41,0,0,1-1.18-.09A5.83,5.83,0,0,1,6,22.68l.34-2.51a4.76,4.76,0,0,0,1.56.24,2.93,2.93,0,0,0,.71-.08,1.67,1.67,0,0,0,.57-.27,1.5,1.5,0,0,0,.43-.5,2.76,2.76,0,0,0,.27-.78A5.58,5.58,0,0,0,10,17.69Z"/></g><g id="_编组_3" data-name="&lt;编组&gt;"><path id="_复合路径_2" data-name="&lt;复合路径&gt;" class="cls-1" d="M15.76,22.13l.62-2.52a7.83,7.83,0,0,0,1.58.6,6.85,6.85,0,0,0,1.8.25,2.7,2.7,0,0,0,1.58-.4A1.25,1.25,0,0,0,21.9,19a1.29,1.29,0,0,0-.51-1,6,6,0,0,0-1.75-.85q-3.72-1.34-3.72-4a3.7,3.7,0,0,1,.36-1.61,3.84,3.84,0,0,1,1-1.29,4.68,4.68,0,0,1,1.61-.86A6.92,6.92,0,0,1,21,9a7.9,7.9,0,0,1,3.44.69l-.68,2.45A6.13,6.13,0,0,0,21,11.5a2.41,2.41,0,0,0-1.45.38,1.12,1.12,0,0,0-.42,1.4,1.35,1.35,0,0,0,.27.38,2.19,2.19,0,0,0,.5.35c.22.12.45.23.69.34l.94.37a6.36,6.36,0,0,1,2.64,1.64,3.54,3.54,0,0,1,.84,2.4,4.15,4.15,0,0,1-.21,1.31,3.6,3.6,0,0,1-.64,1.15,4.13,4.13,0,0,1-1.06.92,5.3,5.3,0,0,1-1.53.6,8.34,8.34,0,0,1-2,.22,9.24,9.24,0,0,1-2.14-.25A6.73,6.73,0,0,1,15.76,22.13Z"/></g></g></svg>
